contributed-vectors/agar_io.svg

<?xml version="1.0" encoding="UTF-8" standalone="no"?>
<svg
   xmlns:dc="http://purl.org/dc/elements/1.1/"
   xmlns:cc="http://creativecommons.org/ns#"
   xmlns:rdf="http://www.w3.org/1999/02/22-rdf-syntax-ns#"
   xmlns:svg="http://www.w3.org/2000/svg"
   xmlns="http://www.w3.org/2000/svg"
   xmlns:sodipodi="http://sodipodi.sourceforge.net/DTD/sodipodi-0.dtd"
   xmlns:inkscape="http://www.inkscape.org/namespaces/inkscape"
   viewBox="0 0 192 192"
   version="1.1"
   id="svg16"
   sodipodi:docname="agar_io.svg"
   inkscape:version="0.92.4 (5da689c313, 2019-01-14)">
  <metadata
     id="metadata20">
    <rdf:RDF>
      <cc:Work
         rdf:about="">
        <dc:format>image/svg+xml</dc:format>
        <dc:type
           rdf:resource="http://purl.org/dc/dcmitype/StillImage" />
        <dc:title></dc:title>
      </cc:Work>
    </rdf:RDF>
  </metadata>
  <sodipodi:namedview
     pagecolor="#ffffff"
     bordercolor="#666666"
     borderopacity="1"
     objecttolerance="10"
     gridtolerance="10"
     guidetolerance="10"
     inkscape:pageopacity="0"
     inkscape:pageshadow="2"
     inkscape:window-width="1920"
     inkscape:window-height="1017"
     id="namedview18"
     showgrid="true"
     inkscape:zoom="3.4766083"
     inkscape:cx="116.77474"
     inkscape:cy="82.169494"
     inkscape:window-x="-8"
     inkscape:window-y="-8"
     inkscape:window-maximized="1"
     inkscape:current-layer="svg16">
    <inkscape:grid
       type="xygrid"
       id="grid827"
       spacingx="4"
       spacingy="4" />
  </sodipodi:namedview>
  <defs
     id="defs4">
    <style
       id="style2">.a{fill:none;stroke:#b1b5bd;stroke-linecap:round;stroke-linejoin:round;isolation:isolate;opacity:0.63;}</style>
  </defs>
  <rect
     class="a"
     x="20"
     y="20"
     width="152"
     height="152"
     rx="10"
     id="rect6"
     style="fill:#ffffff;stroke:none;opacity:1" />
  <rect
     style="opacity:1;vector-effect:none;fill:#f8c18c;fill-opacity:1;fill-rule:evenodd;stroke:none;stroke-width:8;stroke-linecap:round;stroke-linejoin:round;stroke-miterlimit:4;stroke-dasharray:none;paint-order:stroke fill markers"
     id="rect818"
     width="48"
     height="48"
     x="60"
     y="56"
     ry="24" />
  <path
     style="opacity:1;vector-effect:none;fill:#728dbe;fill-opacity:1;fill-rule:evenodd;stroke:none;stroke-width:8;stroke-linecap:round;stroke-linejoin:round;stroke-miterlimit:4;stroke-dasharray:none;paint-order:stroke fill markers"
     d="M 32 20 C 32 26.648 37.352 32 44 32 C 50.648 32 56 26.648 56 20 L 32 20 z "
     id="rect820" />
  <path
     style="opacity:1;vector-effect:none;fill:#9abeff;fill-opacity:1;fill-rule:evenodd;stroke:none;stroke-width:8;stroke-linecap:round;stroke-linejoin:round;stroke-miterlimit:4;stroke-dasharray:none;paint-order:stroke fill markers"
     d="M 28 40 C 25.078198 40 22.35261 40.787521 20 42.144531 L 20 69.855469 C 22.35261 71.212479 25.078198 72 28 72 C 36.864 72 44 64.864 44 56 C 44 47.136 36.864 40 28 40 z "
     id="rect824" />
  <rect
     style="opacity:1;vector-effect:none;fill:#71a372;fill-opacity:1;fill-rule:evenodd;stroke:none;stroke-width:8;stroke-linecap:round;stroke-linejoin:round;stroke-miterlimit:4;stroke-dasharray:none;paint-order:stroke fill markers"
     id="rect826"
     width="24"
     height="24"
     x="40"
     y="108"
     ry="12" />
  <rect
     style="opacity:1;vector-effect:none;fill:#ff837d;fill-opacity:1;fill-rule:evenodd;stroke:none;stroke-width:8;stroke-linecap:round;stroke-linejoin:round;stroke-miterlimit:4;stroke-dasharray:none;paint-order:stroke fill markers"
     id="rect828"
     width="8"
     height="8"
     x="72"
     y="112"
     ry="4" />
  <rect
     style="opacity:1;vector-effect:none;fill:#ffb0ac;fill-opacity:1;fill-rule:evenodd;stroke:none;stroke-width:8;stroke-linecap:round;stroke-linejoin:round;stroke-miterlimit:4;stroke-dasharray:none;paint-order:stroke fill markers"
     id="rect830"
     width="12"
     height="12"
     x="24"
     y="124"
     ry="6" />
  <rect
     style="opacity:1;vector-effect:none;fill:#728dbe;fill-opacity:1;fill-rule:evenodd;stroke:none;stroke-width:8;stroke-linecap:round;stroke-linejoin:round;stroke-miterlimit:4;stroke-dasharray:none;paint-order:stroke fill markers"
     id="rect832"
     width="8"
     height="8"
     x="48"
     y="136"
     ry="4" />
  <path
     style="opacity:1;vector-effect:none;fill:#9abeff;fill-opacity:1;fill-rule:evenodd;stroke:none;stroke-width:8;stroke-linecap:round;stroke-linejoin:round;stroke-miterlimit:4;stroke-dasharray:none;paint-order:stroke fill markers"
     d="M 84 152 C 75.136 152 68 159.136 68 168 C 68 169.38492 68.191762 170.72008 68.519531 172 L 99.480469 172 C 99.808238 170.72008 100 169.38492 100 168 C 100 159.136 92.864 152 84 152 z "
     id="rect834" />
  <path
     style="opacity:1;vector-effect:none;fill:#98dc9a;fill-opacity:1;fill-rule:evenodd;stroke:none;stroke-width:8;stroke-linecap:round;stroke-linejoin:round;stroke-miterlimit:4;stroke-dasharray:none;paint-order:stroke fill markers"
     d="M 148 112 C 128.056 112 112 128.056 112 148 C 112 157.2387 115.44966 165.63943 121.13086 172 L 162 172 C 167.54 172 172 167.54 172 162 L 172 121.13086 C 165.63943 115.44966 157.2387 112 148 112 z "
     id="rect836" />
  <rect
     style="opacity:1;vector-effect:none;fill:#f9de81;fill-opacity:1;fill-rule:evenodd;stroke:none;stroke-width:8;stroke-linecap:round;stroke-linejoin:round;stroke-miterlimit:4;stroke-dasharray:none;paint-order:stroke fill markers"
     id="rect838"
     width="16"
     height="16"
     x="88"
     y="124"
     ry="8" />
  <rect
     style="opacity:1;vector-effect:none;fill:#8c72bd;fill-opacity:1;fill-rule:evenodd;stroke:none;stroke-width:8;stroke-linecap:round;stroke-linejoin:round;stroke-miterlimit:4;stroke-dasharray:none;paint-order:stroke fill markers"
     id="rect840"
     width="24"
     height="24"
     x="120"
     y="60"
     ry="12" />
  <rect
     style="opacity:1;vector-effect:none;fill:#728dbe;fill-opacity:1;fill-rule:evenodd;stroke:none;stroke-width:8;stroke-linecap:round;stroke-linejoin:round;stroke-miterlimit:4;stroke-dasharray:none;paint-order:stroke fill markers"
     id="rect842"
     width="8"
     height="8"
     x="152"
     y="92"
     ry="4" />
  <path
     style="opacity:1;vector-effect:none;fill:#96dfd3;fill-opacity:1;fill-rule:evenodd;stroke:none;stroke-width:8;stroke-linecap:round;stroke-linejoin:round;stroke-miterlimit:4;stroke-dasharray:none;paint-order:stroke fill markers"
     d="M 172 40 C 167.568 40 164 43.568 164 48 C 164 52.432 167.568 56 172 56 L 172 40 z "
     id="rect844" />
  <rect
     style="opacity:1;vector-effect:none;fill:#ff837d;fill-opacity:1;fill-rule:evenodd;stroke:none;stroke-width:8;stroke-linecap:round;stroke-linejoin:round;stroke-miterlimit:4;stroke-dasharray:none;paint-order:stroke fill markers"
     id="rect846"
     width="32"
     height="32"
     x="128"
     y="20"
     ry="16" />
  <rect
     style="opacity:1;vector-effect:none;fill:#bd9aff;fill-opacity:1;fill-rule:evenodd;stroke:none;stroke-width:8;stroke-linecap:round;stroke-linejoin:round;stroke-miterlimit:4;stroke-dasharray:none;paint-order:stroke fill markers"
     id="rect848"
     width="16"
     height="16"
     x="88"
     y="28"
     ry="8" />
</svg>

<svg xmlns="http://www.w3.org/2000/svg" viewBox="0 0 192 192"><rect width="152" height="152" x="20" y="20" rx="10" style="fill:#fff;stroke:none;opacity:1;stroke-linecap:round;stroke-linejoin:round;isolation:isolate"/><rect width="48" height="48" x="60" y="56" ry="24" style="opacity:1;vector-effect:none;fill:#f8c18c;fill-opacity:1;fill-rule:evenodd;stroke:none;stroke-width:8;stroke-linecap:round;stroke-linejoin:round;stroke-miterlimit:4;stroke-dasharray:none;paint-order:stroke fill markers"/><path d="M32 20c0 6.648 5.352 12 12 12s12-5.352 12-12H32z" style="opacity:1;vector-effect:none;fill:#728dbe;fill-opacity:1;fill-rule:evenodd;stroke:none;stroke-width:8;stroke-linecap:round;stroke-linejoin:round;stroke-miterlimit:4;stroke-dasharray:none;paint-order:stroke fill markers"/><path d="M28 40a15.95 15.95 0 0 0-8 2.145v27.71A15.95 15.95 0 0 0 28 72c8.864 0 16-7.136 16-16s-7.136-16-16-16z" style="opacity:1;vector-effect:none;fill:#9abeff;fill-opacity:1;fill-rule:evenodd;stroke:none;stroke-width:8;stroke-linecap:round;stroke-linejoin:round;stroke-miterlimit:4;stroke-dasharray:none;paint-order:stroke fill markers"/><rect width="24" height="24" x="40" y="108" ry="12" style="opacity:1;vector-effect:none;fill:#71a372;fill-opacity:1;fill-rule:evenodd;stroke:none;stroke-width:8;stroke-linecap:round;stroke-linejoin:round;stroke-miterlimit:4;stroke-dasharray:none;paint-order:stroke fill markers"/><rect width="8" height="8" x="72" y="112" ry="4" style="opacity:1;vector-effect:none;fill:#ff837d;fill-opacity:1;fill-rule:evenodd;stroke:none;stroke-width:8;stroke-linecap:round;stroke-linejoin:round;stroke-miterlimit:4;stroke-dasharray:none;paint-order:stroke fill markers"/><rect width="12" height="12" x="24" y="124" ry="6" style="opacity:1;vector-effect:none;fill:#ffb0ac;fill-opacity:1;fill-rule:evenodd;stroke:none;stroke-width:8;stroke-linecap:round;stroke-linejoin:round;stroke-miterlimit:4;stroke-dasharray:none;paint-order:stroke fill markers"/><rect width="8" height="8" x="48" y="136" ry="4" style="opacity:1;vector-effect:none;fill:#728dbe;fill-opacity:1;fill-rule:evenodd;stroke:none;stroke-width:8;stroke-linecap:round;stroke-linejoin:round;stroke-miterlimit:4;stroke-dasharray:none;paint-order:stroke fill markers"/><path d="M84 152c-8.864 0-16 7.136-16 16 0 1.385.192 2.72.52 4h30.96c.328-1.28.52-2.615.52-4 0-8.864-7.136-16-16-16z" style="opacity:1;vector-effect:none;fill:#9abeff;fill-opacity:1;fill-rule:evenodd;stroke:none;stroke-width:8;stroke-linecap:round;stroke-linejoin:round;stroke-miterlimit:4;stroke-dasharray:none;paint-order:stroke fill markers"/><path d="M148 112c-19.944 0-36 16.056-36 36 0 9.239 3.45 17.64 9.13 24H162c5.54 0 10-4.46 10-10v-40.87c-6.36-5.68-14.761-9.13-24-9.13z" style="opacity:1;vector-effect:none;fill:#98dc9a;fill-opacity:1;fill-rule:evenodd;stroke:none;stroke-width:8;stroke-linecap:round;stroke-linejoin:round;stroke-miterlimit:4;stroke-dasharray:none;paint-order:stroke fill markers"/><rect width="16" height="16" x="88" y="124" ry="8" style="opacity:1;vector-effect:none;fill:#f9de81;fill-opacity:1;fill-rule:evenodd;stroke:none;stroke-width:8;stroke-linecap:round;stroke-linejoin:round;stroke-miterlimit:4;stroke-dasharray:none;paint-order:stroke fill markers"/><rect width="24" height="24" x="120" y="60" ry="12" style="opacity:1;vector-effect:none;fill:#8c72bd;fill-opacity:1;fill-rule:evenodd;stroke:none;stroke-width:8;stroke-linecap:round;stroke-linejoin:round;stroke-miterlimit:4;stroke-dasharray:none;paint-order:stroke fill markers"/><rect width="8" height="8" x="152" y="92" ry="4" style="opacity:1;vector-effect:none;fill:#728dbe;fill-opacity:1;fill-rule:evenodd;stroke:none;stroke-width:8;stroke-linecap:round;stroke-linejoin:round;stroke-miterlimit:4;stroke-dasharray:none;paint-order:stroke fill markers"/><path d="M172 40c-4.432 0-8 3.568-8 8s3.568 8 8 8V40z" style="opacity:1;vector-effect:none;fill:#96dfd3;fill-opacity:1;fill-rule:evenodd;stroke:none;stroke-width:8;stroke-linecap:round;stroke-linejoin:round;stroke-miterlimit:4;stroke-dasharray:none;paint-order:stroke fill markers"/><rect width="32" height="32" x="128" y="20" ry="16" style="opacity:1;vector-effect:none;fill:#ff837d;fill-opacity:1;fill-rule:evenodd;stroke:none;stroke-width:8;stroke-linecap:round;stroke-linejoin:round;stroke-miterlimit:4;stroke-dasharray:none;paint-order:stroke fill markers"/><rect width="16" height="16" x="88" y="28" ry="8" style="opacity:1;vector-effect:none;fill:#bd9aff;fill-opacity:1;fill-rule:evenodd;stroke:none;stroke-width:8;stroke-linecap:round;stroke-linejoin:round;stroke-miterlimit:4;stroke-dasharray:none;paint-order:stroke fill markers"/></svg>
